X:19
T:A las orillas del Titicaca
R:waynu
D:Los Incas
O:Peru/Bolivia
Z:id:hn-waynu-19
M:3/4
L:1/8
Q:1/4=90
K:Em
B/BB/ e2 g2 | e/dB/ d2 e2 |
G/GG/ e2 g2 | e/dB/ d2 e2 ||
G/AB/ d2 e2 | B/AG/ E2 G2 |
G/AB/ d2 e2 | B/AG/ E2 E2 ||
W:|: A las orillas del Titicaca :|
W:|: grab\'e tu nombre sobre la arena :|
W:
W:|: Vino la ola y lo borr\'o todo :|
W:|: Y de tu nombre no qued\'o nada :|
W:
W:|: Sobre las pe\~nas grab\'e tu nombre :|
W:|: Vino la lluvia y lo borr\'o todo :|
W:
W:Sobre las pe\~nas grab\'e tu nombre
W:Vino la lluvia y lo borr\'o todo
W:|: Y de tu nombre no qued\'o nada :|

